X: 20613
M: 6/8
L: 1/8
K: G
def gag | gfe d^cd | e=cA cde | G3 F2d |
def g2g | gfe d2g | gfd fe^c | e3 d2 |] f |\
gfe d^cd | ed=c BAB | GBd cde | G3 F2D |\


